X:312
T:Atholl Highlanders
O:england
M:6/8
L:1/8
Q:200
C:Trad
R:jig
K:A
e3 ecA|ecA Bcd|e3 ecA|Bcd c2 B|
e3 ecA|ecA Bcd|eae fed|cdB A3:|
Ace Ace|Adf Adf|Ace Ace|Bcd c2 B|
Ace Ace|Adf Adf|eae fed|cdB A3:|
aee edc|aee edc|aee edc|Bcd cBA|
aee edc|aee edc|eae fed|cdB A3:|
cAc cAc|dBd dBd|cAc cAc|B=GB BGB|
cAc cAc|dBd dBd|eae fed|cdB A3:|


